!!!!SEGMENT: pl-kk--kk-i-7--033-004_pekiel-bartlomiej--missa-sanctus.krn
!!!cenid: 16xx:826
!!!COM: Pękiel, Bartłomiej
!!!COM-rismid: pe30105642
!!!CDT: <1633-~1670
!!!CNT: Polish
!!!OPR: Missa
!!!OTL: Sanctus
!!!OMV: 004
!!!PDT: 1664
!!!AGN: Sacred; Mass
!!!SMS-siglum: PL-Kk
!!!SMS-shelfmark: Kk.I.7
!!!SMS-shelfwork: 033-004 M
!!!SMS-variant:
!!!SMS-altvar:
!!!NIFC-rismid: 300258110
!!!URL-scan: http://repozytorium.nifc.pl/skany/pl-kk-nut--i-7
!!!ONB-nifc: UWAGA: C (skan 0020-0024, s.34-42), A (0106-0110, s.33-41), T(0181-0185, s.27-35), B(0273–277, s.35-43). Części Mszy: 1. Kyrie, 2. Et in terra, 3. Patrem, 4. Sanctus, 5. Agnus Dei
**kern	**text	**kern	**text	**kern	**text	**kern	**text
*part4	*part4	*part3	*part3	*part2	*part2	*part1	*part1
*staff4	*staff4	*staff3	*staff3	*staff2	*staff2	*staff1	*staff1
*Ibass	*	*Itenor	*	*Ialto	*	*Ivox	*
*I"Basso	*	*I"Tenore	*	*I"Alto	*	*I"Canto	*
*I'B.	*	*I'T.	*	*I'A.	*	*I'C.	*
*clefF4	*	*clefC4	*	*clefC4	*	*clefC3	*
*k[]	*	*k[]	*	*k[]	*	*k[]	*
*G:	*	*G:	*	*G:	*	*G:	*
*M2/1	*	*M2/1	*	*M2/1	*	*M2/1	*
*met(C|)	*	*met(C|)	*	*met(C|)	*	*met(C|)	*
=1-	=1-	=1-	=1-	=1-	=1-	=1-	=1-
*	*	*2\right	*	*2\right	*	*	*
!	!	!	!	!	!	!LO:SIC:o=C3 klucz na początku systemu	!
!	!	!LO:TX:a:t=plik źródłowy&colon;<pl-kk--i-7--0184	!	!LO:TX:a:t=plik źródłowy&colon;<pl-kk--i-7--0109	!	!LO:TX:a:t=plik źródłowy&colon;< pl-kk--i-7--0023	!
!LO:TX:a:t=plik źródłowy&colon;< pl-kk--i-7--0276	!	!	!	!	!	!LO:TX:t=P:problem:kreska pseudotaktowa	!
0GG/	San-	2.B\	SAn-	2.d\	SAn-	1g\	SAn
!	!	!LO:TX:t=P:problem:kreska pseudotaktowa	!	!LO:TX:t=P:problem:kreska pseudotaktowa	!	!	!
.	.	4c\	-ctus	4c\	.	.	.
*	*	*	*	*	*	*2\right	*
!	!	!	!	!	!	!LO:TX:a:t=P:problem:all\right GLOBAL	!
.	.	1d\	.	4B\	.	2d\	.
.	.	.	.	4A/	.	.	.
.	.	.	.	1B\	.	1g\	.
=2-	=2-	=2-	=2-	=2-	=2-	=2-	=2-
0.D\;>	-ctus	0.d\;<	.	.	.	.	.
!	!	!	!	!	!	!LO:TX:a:t=P:problem:# above	!
.	.	.	.	4A/	.	4f#X\	.
.	.	.	.	4G/	-ctus	4e\	ctus
!	!	!	!	!LO:TX:t=P:problem:fermata odwrócona pod nutą:global	!	!LO:TX:t=P:problem:fermata odwrócona pod nutą:global	!
.	.	.	.	0A\;<	.	0f#X\;<	.
=3-	=3-	=3-	=3-	=3-	=3-	=3-	=3-
.	.	.	.	.	.	.	.
=4||-	=4||-	=4||-	=4||-	=4||-	=4||-	=4||-	=4||-
*M2/1	*	*M2/1	*	*M2/1	*	*M2/1	*
*met(C|)	*	*met(C|)	*	*met(C|)	*	*met(C|)	*
0AA/	San-	2.e\	SAn-	2.A/	San-	1a\	SAn-
!	!	!LO:TX:t=P:problem:kreska pseudotaktowa	!	!LO:TX:t=P:problem:kreska pseudotaktowa	!	!	!
.	.	4d\	.	4B\	.	.	.
.	.	4c\	.	2.c\	.	2e\	.
.	.	4B\	.	.	.	.	.
.	.	1c\	.	.	.	1a\	.
.	.	.	.	4d\	.	.	.
=5-	=5-	=5-	=5-	=5-	=5-	=5-	=5-
0.E\;:	-ctus	.	.	0.e\;<	-ctus	.	.
!	!	!	!	!	!	!LO:TX:a:t=P:problem:# above	!
.	.	4B\	.	.	.	4g#X\	.
!	!	!LO:TX:t=P:problem:kreska pseudotaktowa	!	!	!	!LO:TX:a:t=P:problem:# above	!
.	.	4A/	-ctus	.	.	4f#X\	-ctus
.	.	0B\;>	.	.	.	0g#X\;<	.
=6-	=6-	=6-	=6-	=6-	=6-	=6-	=6-
!	!	!	!	!LO:SIC:o:v=custos ee	!	!	!
.	.	.	.	.	.	.	.
!	!	!	!	!LO:LB:g=original	!	!LO:LB:g=original	!
=7||-	=7||-	=7||-	=7||-	=7||-	=7||-	=7||-	=7||-
*M2/1	*	*M2/1	*	*M2/1	*	*M2/1	*
*met(C|)	*	*met(C|)	*	*met(C|)	*	*met(C|)	*
!	!	!	!	!	!	!LO:N:acc=-	!
[1C/	San-	0c\	San-	1e\	San-	0gn\	San-
4C/]	.	.	.	2e\	-ctus	.	.
4D/	.	.	.	.	.	.	.
*	*	*	*	*	*ij	*	*
4E/	.	.	.	1e\	San-	.	.
!LO:TX:t=P:problem:kreska pseudotaktowa	!	!	!	!	!	!	!
4C/	.	.	.	.	.	.	.
=8-	=8-	=8-	=8-	=8-	=8-	=8-	=8-
*2\right	*	*	*	*	*	*	*
2G\	-ct(us)	2c\	-ct(us)	.	.	2g\	-ctus
1G\	.	4B\	.	4d\	.	4g\	.
!	!	!LO:TX:t=P:problem:kreska pseudotaktowa	!	!LO:TX:t=P:problem:kreska pseudotaktowa	!	!	!
.	.	4A\	.	4c\	.	8f\L	.
!	!	!	!	!	!	!LO:TX:t=P:problem:kreska pseudotaktowa	!
.	.	.	.	.	.	8e\J	.
.	.	4B\	San-	2d\	-ctus	4d\	San-
.	.	4c\	.	.	.	4e\	.
2F\	San-	1d\	.	2r	.	4f\	.
.	.	.	.	.	.	4d\	.
=9-	=9-	=9-	=9-	=9-	=9-	=9-	=9-
(1E\	.	.	.	2r	.	1.g\	.
!	!	!LO:TX:t=P:problem:kreska pseudotaktowa	!	!	!	!	!
!	!	!LO:TX:a:t=P:problem:# above	!	!	!	!	!
.	.	2c#X\	-ct(us)	4G/	San-	.	.
!	!	!	!	!LO:TX:t=P:problem:kreska pseudotaktowa	!	!	!
.	.	.	.	4A/	.	.	.
!LO:TX:t=P:problem:kreska pseudotaktowa	!	!	!	!	!	!	!
1D\)	.	1d\	.	4B\	.	.	.
.	.	.	.	4A/	.	.	.
.	.	.	.	1d\	.	1f\	-ctus
=10-	=10-	=10-	=10-	=10-	=10-	=10-	=10-
[1AA/	.	2r	.	.	.	.	.
*	*	*	*ij	*	*	*	*
.	.	4A/	San-	4c\	.	4e\	.
!	!	!LO:TX:t=P:problem:kreska pseudotaktowa	!	!LO:TX:t=P:problem:kreska pseudotaktowa	!	!LO:TX:t=P:problem:kreska pseudotaktowa	!
.	.	4B\	.	4B\	.	4d\	.
*	*	*	*	*lig	*	*	*ij
4AA/]	.	4c\	.	1A\	.	4e\	San-
4BB/	.	4d\	.	.	.	4d\	.
!	!	!LO:TX:t=P:problem:kreska pseudotaktowa	!	!	!	!	!
4C/	.	2e\	.	.	.	2c/	.
!LO:TX:t=P:problem:kreska pseudotaktowa	!	!	!	!	!	!	!
4AA/	.	.	.	.	.	.	.
=11-	=11-	=11-	=11-	=11-	=11-	=11-	=11-
1E\	.	4E/	.	1G/	.	2B/	.
!	!	!LO:TX:a:t=P:problem:# below	!	!	!	!	!
.	.	4F#X/	.	.	.	.	.
!	!	!LO:TX:a:t=P:problem:# below	!	!	!	!	!
.	.	4G#X/	.	.	.	1e\	-ctus
!	!	!LO:SIC:o:v=custos B	!	!	!	!	!
.	.	4A/	-ct(us)	.	.	.	.
!	!	!LO:LB:g=original	!	!	!	!	!
!	!	!LO:TX:t=P:problem:kreska pseudotaktowa	!	!	!	!	!
*	*	*	*	*Xlig	*	*	*
!	!	!	!	!LO:TX:t=P:problem:kreska pseudotaktowa	!	!	!
1BB/	.	1.B\	San-	1F#X/	.	.	.
!	!	!	!	!	!	!LO:TX:t=P:problem:kreska pseudotaktowa	!
.	.	.	.	.	.	2d\	.
=12-	=12-	=12-	=12-	=12-	=12-	=12-	=12-
2.C/	.	.	.	2E/	-ctus	2c/	San-
*	*	*	*	*	*Xij	*	*
.	.	2.A/	.	2.c\	San-	1e\	.
4D/	.	.	.	.	.	.	.
!LO:SIC:o:v=custos D	!	!	!	!	!	!	!
!LO:TX:t=P:problem:kreska pseudotaktowa	!	!	!	!	!	!	!
!LO:LB:g=original	!	!	!	!	!	!	!
1E\	.	.	.	.	.	.	.
.	.	4G/	.	4B\	.	.	.
!	!	!	!	!	!	!LO:TX:t=P:problem:kreska pseudotaktowa	!
.	.	1c\	.	4A/	.	2e\	-ctus
!	!	!	!	!LO:TX:t=P:problem:kreska pseudotaktowa	!	!	!
.	.	.	.	4G/	.	.	.
=13-	=13-	=13-	=13-	=13-	=13-	=13-	=13-
!	!	!	!	!	!	!LO:TX:a:t=P:problem:# above	!
0D\	.	.	.	0d\	-ctus	2f#X\	San-
!	!	!LO:TX:t=P:problem:kreska pseudotaktowa	!	!	!	!	!
.	.	2B\	.	.	.	1g\	.
.	.	1A\	.	.	.	.	.
.	.	.	.	.	.	2f#\	.
=14-	=14-	=14-	=14-	=14-	=14-	=14-	=14-
!LO:TX:t=P:problem:kreska pseudotaktowa	!	!LO:TX:t=P:problem:kreska pseudotaktowa	!	!	!	!LO:TX:t=P:problem:kreska pseudotaktowa	!
1GG/	-ctus	1B\	-ct(us)	2d\	.	1g\	-ctus
.	.	.	.	4.d\	Do-	.	.
!	!	!	!	!LO:TX:t=P:problem:kreska pseudotaktowa	!	!	!
.	.	.	.	8d\	-mi-	.	.
*	*	*	*Xij	*	*	*	*
4.G\	Do-	4.B\	Do-	2B\	-n(us)	2r	.
8G\	-mi-	8B\	-mi-	.	.	.	.
!	!	!LO:TX:t=P:problem:kreska pseudotaktowa	!	!	!	!	!
*	*	*	*	*	*	*	*Xij
2E\	-n(us)	2G/	-n(us)	2.e\	.	4.g\	Do-
!	!	!	!	!	!	!LO:TX:t=P:problem:kreska pseudotaktowa	!
.	.	.	.	.	.	8g\	-mi-
=15-	=15-	=15-	=15-	=15-	=15-	=15-	=15-
!	!	!	!	!LO:TX:t=P:problem:kreska pseudotaktowa	!	!	!
2.A\	.	2.c\	De-	.	.	2d\	-nus
.	.	.	.	4d\	De-	.	.
.	.	.	.	1c\	.	1a\	.
4G\	De-	4B\	.	.	.	.	.
2F\	.	4A/	.	.	.	.	.
.	.	4B\	.	.	.	.	.
!LO:TX:t=P:problem:kreska pseudotaktowa	!	!	!	!	!	!LO:TX:t=P:problem:kreska pseudotaktowa	!
2E\	-us	4c\	.	4c\	-us	2g\	De-
!	!	!LO:TX:t=P:problem:kreska pseudotaktowa	!	!	!	!	!
.	.	4G/	-us	2c\	Sab-	.	.
=16-	=16-	=16-	=16-	=16-	=16-	=16-	=16-
2.D/	Sab-	2.d\	Sab-	.	.	2.f\	-o
.	.	.	.	8B\L	.	.	.
!	!	!	!	!LO:SIC:o:v=custos b	!	!	!
.	.	.	.	8A\J	.	.	.
!	!	!	!	!LO:LB:g=original	!	!	!
.	.	.	.	4.B\	-ba-	.	.
!	!	!	!	!	!	!LO:SIC:o:v=custos ee	!
!	!	!	!	!	!	!LO:TX:t=P:problem:kreska pseudotaktowa	!
4D/	-ba-	4d\	-ba-	.	.	4f\	Sabba-
.	.	.	.	8B\	-oth	.	.
!	!	!	!	!	!	!LO:LB:g=original	!
!LO:TX:t=P:problem:kreska pseudotaktowa	!	!	!	!	!	!LO:TX:t=P:problem:kreska pseudotaktowa	!
1C/	-oth	2G/	-oth	2c\	.	1e\,	-oth
!	!	!	!	!LO:TX:t=P:problem:kreska pseudotaktowa	!	!	!
.	.	2.c\	.	2r	.	.	.
=17-	=17-	=17-	=17-	=17-	=17-	=17-	=17-
!	!	!LO:TX:t=P:problem:kreska pseudotaktowa	!	!	!	!	!
*	*	*	*	*	*ij	*	*
00r	.	.	.	4.e\	Do-	4.g\	Do-
*	*	*	*ij	*	*	*	*
.	.	4c\	Do-	.	.	.	.
.	.	.	.	8e\	-mi-	8g\	-mi-
!	!	!LO:TX:t=P:problem:kreska pseudotaktowa	!	!LO:TX:t=P:problem:kreska pseudotaktowa	!	!LO:TX:t=P:problem:kreska pseudotaktowa	!
.	.	2A/	-mi-	2f\	-nus	2a\	-n(us)
.	.	1.c\	-n(us)	1.e\	De-	8g\L	De-
.	.	.	.	.	.	8f\	.
.	.	.	.	.	.	8e\	.
.	.	.	.	.	.	8d\J	.
.	.	.	.	.	.	4c/	.
!	!	!	!	!	!	!LO:TX:t=P:problem:kreska pseudotaktowa	!
.	.	.	.	.	.	4d\	.
=18-	=18-	=18-	=18-	=18-	=18-	=18-	=18-
.	.	.	.	.	-us	4e\	.
.	.	.	.	.	.	4c/	-us
!	!	!LO:TX:t=P:problem:kreska pseudotaktowa	!	!LO:TX:t=P:problem:kreska pseudotaktowa	!	!	!
.	.	2B\	De-	2d\	Sab-	2.g\	.
.	.	2.A/	-us	2.c\	-ba-	.	.
!	!	!	!	!	!	!LO:TX:a:t=P:problem:# above	!
.	.	.	.	.	.	8f#X\L	Sab-
.	.	.	.	.	.	8e\J	.
!	!	!	!	!	!	!LO:TX:a:t=P:problem:# above	!
.	.	.	.	.	.	4.f#X\	-ba-
!	!	!LO:TX:t=P:problem:kreska pseudotaktowa	!	!LO:TX:t=P:problem:kreska pseudotaktowa	!	!	!
.	.	4A/	Sab-	4c\	-oth	.	.
!	!	!	!	!	!	!LO:TX:t=P:problem:kreska pseudotaktowa	!
.	.	.	.	.	.	8f#\	-oth
=19-	=19-	=19-	=19-	=19-	=19-	=19-	=19-
2.G\	Do-	2B\	-ba-	4d\	Do-	2g\	.
.	.	.	.	4.d\	-mi-	.	.
.	.	4.B\	-oth	.	.	4.g\	Do-
.	.	.	.	8d\	-nus	.	.
!LO:TX:t=P:problem:kreska pseudotaktowa	!	!	!	!LO:TX:t=P:problem:kreska pseudotaktowa	!	!	!
4G\	-mi-	.	.	4e\	De-	.	.
!	!	!LO:TX:t=P:problem:kreska pseudotaktowa	!	!	!	!	!
.	.	8B\	.	.	.	8g\	-mi-
!	!	!	!	!	!	!LO:TX:t=P:problem:kreska pseudotaktowa	!
1A\	-nus	2c\	Do-	4e\	-us	1e\	-n(us)
.	.	.	.	4d\	.	.	.
.	.	1e\	-mi-	1c\	Sab-	.	.
=20-	=20-	=20-	=20-	=20-	=20-	=20-	=20-
!	!	!	!	!	!	!LO:TX:a:t=2	!
1F\	.	.	.	.	.	0r	.
!	!	!LO:TX:t=P:problem:kreska pseudotaktowa	!	!	!	!	!
.	.	2d\	-nus	4B\	-ba-	.	.
!	!	!	!	!LO:TX:t=P:problem:kreska pseudotaktowa	!	!	!
.	.	.	.	4A\	.	.	.
2E\	De-	2e\	De-	2B\	-oth	.	.
*	*	*	*	*	*Xij	*	*
4C/	-us	1e\	-us-	1c\	Do-	.	.
!LO:TX:t=P:problem:kreska pseudotaktowa	!	!	!	!	!	!	!
4D/	.	.	.	.	.	.	.
=21-	=21-	=21-	=21-	=21-	=21-	=21-	=21-
4E\	Sab-	.	.	.	.	1g\	De-
4F\	.	.	.	.	.	.	.
1G\	.	4d\	.	4B\	-mi-	.	.
!	!	!LO:TX:t=P:problem:kreska pseudotaktowa	!	!LO:TX:t=P:problem:kreska pseudotaktowa	!	!	!
.	.	4c\	.	4A/	-n(us)	.	.
!	!	!	!	!	!	!LO:TX:t=P:problem:kreska pseudotaktowa	!
.	.	4.B\	-Sab-	4B\	De-	1a\	-us
.	.	.	.	4G/	-us	.	.
.	.	8B\	-ba-	.	.	.	.
!LO:TX:a:t=P:problem:# above	!	!LO:SIC:o:v=custos B	!	!	!	!	!
!LO:TX:t=P:problem:kreska pseudotaktowa	!	!LO:TX:t=P:problem:kreska pseudotaktowa	!	!	!	!	!
2F#X\	.	2A/	-oth	1d\	Sab-	.	.
*	*	*	*Xij	*	*	*	*
!	!	!LO:LB:g=original	!	!	!	!	!
=22-	=22-	=22-	=22-	=22-	=22-	=22-	=22-
2.E\	-ba-	2B\	Sab-	.	.	4g\	Sab-
.	.	.	.	.	.	4f\	.
!	!	!LO:TX:t=P:problem:kreska pseudotaktowa	!	!	!	!	!
!	!	!	!	!LO:TX:a:t=P:problem:# above	!	!	!
.	.	2G/	-ba-	2c#X\	-ba-	4.e\	.
4E\	.	.	.	.	.	.	.
!	!	!	!	!	!	!LO:TX:t=P:problem:kreska pseudotaktowa	!
.	.	.	.	.	.	8e\	-ba-
2D/	-oth	2F#X/	-oth	2d\	-oth	2A/	-oth
1D\	De-	4D/	De-	4d\	Sab-	1A/	De-
!	!	!LO:TX:t=P:problem:kreska pseudotaktowa	!	!	!	!	!
.	.	4E/	.	8c#\L	.	.	.
!	!	!	!	!LO:TX:t=P:problem:kreska pseudotaktowa	!	!	!
.	.	.	.	8B\J	.	.	.
=23-	=23-	=23-	=23-	=23-	=23-	=23-	=23-
!	!	!LO:TX:a:t=P:problem:# above	!	!	!	!	!
.	.	4F#X/	.	4A/	.	.	.
.	.	4G/	.	4B\	.	.	.
!LO:TX:t=P:problem:kreska pseudotaktowa	!	!	!	!	!	!LO:TX:t=P:problem:kreska pseudotaktowa	!
2C/	-us	4A/	.	4c\	.	2e\	-(us)
!	!	!LO:TX:t=P:problem:kreska pseudotaktowa	!	!	!	!	!
.	.	4B\	-us	8d\L	.	.	.
!	!	!	!	!LO:TX:t=P:problem:kreska pseudotaktowa	!	!	!
.	.	.	.	8e\J	.	.	.
!	!	!	!	!LO:SIC:o:v=custos a	!	!	!
1.E\	Sab-	2c\	Sab-	2G#X/	-ba-	1.e\	Sab-
!	!	!	!	!LO:LB:g=original	!	!	!
.	.	4B\	.	1A\	-oth	.	.
!	!	!LO:TX:a:t=P:problem:kreska pseudotaktowa	!	!	!	!	!
.	.	4A\	.	.	.	.	.
=24-	=24-	=24-	=24-	=24-	=24-	=24-	=24-
.	.	2.B\	-ba	.	.	.	.
!LO:SIC:o:v=custos AA	!	!	!	!	!	!	!
!LO:TX:t=P:problem:kreska pseudotaktowa	!	!	!	!LO:TX:t=P:problem:kreska pseudotaktowa	!	!	!
2E\	-ba-	.	.	2G#y/	.	2e\	-ba
.	.	4B\	oth	.	.	.	.
!LO:LB:g=original	!	!	!	!	!	!	!
2AA,/	-oth	2c,\	.	1A\	.	1e\,	oth
!LO:TX:t=P:problem:kreska pseudotaktowa	!	!LO:TX:t=P:problem:kreska pseudotaktowa	!	!	!	!	!
2A\	Ple-	2c\	Ple-	.	.	.	.
=25-	=25-	=25-	=25-	=25-	=25-	=25-	=25-
!	!	!	!	!	!	!LO:TX:t=P:problem:kreska pseudotaktowa	!
2A\	.	2c\	-ni	1r	.	1e\	Ple-
!LO:TX:a:t=P:problem:# above	!	!	!	!	!	!	!
2G#X\	-ni	2B\	Sunt	.	.	.	.
!	!	!LO:TX:t=P:problem:kreska pseudotaktowa	!	!	!	!	!
(2A\	Sunt	1c\	c(ae)-	2r	.	2e\	.
!LO:TX:t=P:problem:kreska pseudotaktowa	!	!	!	!LO:TX:t=P:problem:kreska pseudotaktowa	!	!	!
2AA/)	.	.	.	2A/	Ple-	2e\	-ni
=26-	=26-	=26-	=26-	=26-	=26-	=26-	=26-
1E\	c(ae)-	2.B\	-li	2A/	-ni	1e\	Sunt
!	!	!	!	!LO:TX:t=P:problem:kreska pseudotaktowa	!	!	!
.	.	.	.	2G#X/	Sunt	.	.
.	.	4c\	et	.	.	.	.
*	*	*	*	*	*	*	*ij
2D/	-li	1d\	ter-	4A/	c(ae)-	2f\	Sunt
*	*	*	*	*	*	*	*Xij
.	.	.	.	4D/	.	.	.
!	!	!	!	!	!	!LO:SIC:o:v=custos ff	!
!LO:TX:t=P:problem:kreska pseudotaktowa	!	!	!	!LO:TX:t=P:problem:kreska pseudotaktowa	!	!LO:TX:t=P:problem:kreska pseudotaktowa	!
*	*ij	*	*	*	*	*	*
2D/	Ple-	.	.	2d\	.	2f\	.
!	!	!	!	!	!	!LO:PB:g=original	!
=27-	=27-	=27-	=27-	=27-	=27-	=27-	=27-
!	!	!LO:TX:t=P:problem:kreska pseudotaktowa	!	!	!	!	!
2D/	-ni-	1A\	-ra	2d\	-li	2f\	c(ae)-
!	!	!	!	!LO:TX:t=P:problem:kreska pseudotaktowa	!	!LO:TX:t=P:problem:kreska pseudotaktowa	!
2C#X/	-sunt	.	.	2r	.	2e\	-li
1D\	c(ae)-	2r	.	1r	.	4d\	et
.	.	.	.	.	.	4e\	.
.	.	2d\	Ple-	.	.	4f\	.
.	.	.	.	.	.	8g\L	.
!	!	!	!	!	!	!LO:TX:t=P:problem:kreska pseudotaktowa	!
.	.	.	.	.	.	8f\J	.
=28-	=28-	=28-	=28-	=28-	=28-	=28-	=28-
!LO:TX:t=P:problem:kreska pseudotaktowa	!	!	!	!	!	!	!
1AA/	-li	2d\	-ni	1r	.	2e\	.
!	!	!LO:TX:a:t=P:problem:# above	!	!	!	!	!
!	!	!LO:TX:t=P:problem:kreska pseudotaktowa	!	!	!	!	!
.	.	2c#X\	.	.	.	1a\	.
1r	.	4d\	Sunt	2r	.	.	.
.	.	4c#\	.	.	.	.	.
!	!	!LO:TX:t=P:problem:kreska pseudotaktowa	!	!LO:TX:t=P:problem:kreska pseudotaktowa	!	!LO:TX:a:t=P:problem:# above	!
*	*	*	*	*	*ij	*	*
.	.	2B\	c(ae)-	2d\	Ple-	2g#X\	ter-
=29-	=29-	=29-	=29-	=29-	=29-	=29-	=29-
!	!	!	!	!	!	!LO:TX:t=P:problem:kreska pseudotaktowa	!
2r	.	1A\	-li	2d\	-ni	1a\	-ra
*	*Xij	*	*	*	*	*	*
!	!	!	!	!LO:TX:a:t=P:problem:# above	!	!	!
!LO:TX:t=P:problem:kreska pseudotaktowa	!	!	!	!LO:TX:t=P:problem:kreska pseudotaktowa	!	!	!
2A\	Ple-	.	.	2c#X\	Sunt	.	.
!	!	!LO:TX:t=P:problem:kreska pseudotaktowa	!	!	!	!	!
2A\	-ni	1B\	et	2d\	c(ae)-	0r	.
2G#X\	Sunt	.	.	2.e\	-li	.	.
=30-	=30-	=30-	=30-	=30-	=30-	=30-	=30-
!	!	!	!	!LO:TX:t=P:problem:kreska pseudotaktowa	!	!	!
2.A\	.	2.c\	ter-	.	.	.	.
.	.	.	.	4d\	.	.	.
.	.	.	.	1c\	.	.	.
4G\	c(ae)-	4B\	.	.	.	.	.
4F\	.	0.A\	-ra	.	.	2r	.
4E\	.	.	.	.	.	.	.
!LO:TX:t=P:problem:kreska pseudotaktowa	!	!	!	!	!	!LO:TX:t=P:problem:kreska pseudotaktowa	!
2D/	.	.	.	1d\	.	2f\	Ple-
=31-	=31-	=31-	=31-	=31-	=31-	=31-	=31-
2D/	-li	.	.	.	.	2f\	-ni
!	!	!	!	!	!	!LO:TX:t=P:problem:kreska pseudotaktowa	!
2C#X/	et	.	.	1e\	.	2e\	.
4D/	.	.	.	.	.	2f\	Sunt
4E\	ter-	.	.	.	.	.	.
4F\	.	.	.	2.d\	et	4f\	c(ae)-
4D/	.	.	.	.	.	4f\	-li
=32-	=32-	=32-	=32-	=32-	=32-	=32-	=32-
!LO:TX:t=P:problem:kreska pseudotaktowa	!	!LO:TX:t=P:problem:kreska pseudotaktowa	!	!	!	!	!
1A\	.	1A\	.	.	ter-	1e\	et
!	!	!	!	!LO:TX:a:t=P:problem:# above	!	!	!
.	.	.	.	8c#X\L	.	.	.
.	.	.	.	8B\J	.	.	.
!	!	!	!	!LO:TX:t=P:problem:kreska pseudotaktowa	!	!	!
.	.	.	.	2c#\	.	.	.
!	!	!	!	!	!	!LO:TX:a:t=P:problem:# above	!
!	!	!	!	!	!	!LO:TX:t=P:problem:kreska pseudotaktowa	!
1D\,	-ra	2r	.	1d\	-ra	1f#X\	terra
.	.	2.d\	glo-	.	.	.	.
=33-	=33-	=33-	=33-	=33-	=33-	=33-	=33-
2.G\	glo-	.	.	2.B\	glo-	0r	.
!	!	!LO:SIC:o:v=custos e	!	!	!	!	!
.	.	4d\	-ri-	.	.	.	.
!	!	!LO:LB:g=original	!	!	!	!	!
!	!	!LO:TX:t=P:problem:kreska pseudotaktowa	!	!	!	!	!
.	.	2e\	-a	.	.	.	.
!	!	!	!	!LO:TX:t=P:problem:kreska pseudotaktowa	!	!	!
4G\	-ri-	.	.	4B\	-ri-	.	.
!LO:SIC:o:v=custos F	!	!	!	!	!	!	!
!LO:TX:t=P:problem:kreska pseudotaktowa	!	!	!	!LO:SIC:o:v=custos ee	!	!	!
1A\	-a	4e\	tu-	2A/	-a	.	.
.	.	4d\	.	.	.	.	.
!	!	!	!	!LO:PB:g=original	!	!	!
.	.	1c\	.	1e\	tu-	.	.
!LO:LB:g=original	!	!	!	!	!	!	!
=34-	=34-	=34-	=34-	=34-	=34-	=34-	=34-
1F\	tu-	.	.	.	.	1r	.
!	!	!	!	!LO:TX:t=P:problem:kreska pseudotaktowa	!	!	!
.	.	4B\	.	2d\	-a	.	.
!	!	!LO:TX:t=P:problem:kreska pseudotaktowa	!	!	!	!	!
.	.	4A\	.	.	.	.	.
2E\	-a	2B\	-a	2e\	.	4.g\	glo-
.	.	.	.	.	.	8f\	.
4C/	.	2.c\	glo-	4e\	glo-	4e\	.
!LO:TX:t=P:problem:kreska pseudotaktowa	!	!	!	!LO:TX:t=P:problem:kreska pseudotaktowa	!	!LO:TX:t=P:problem:kreska pseudotaktowa	!
4D/	glo-	.	.	4d\	.	4f\	.
=35-	=35-	=35-	=35-	=35-	=35-	=35-	=35-
4E/	-ri-	.	.	4.c\	-ria	4g\	.
4C/	-a	4c\	-ri-	.	.	8f\L	.
.	.	.	.	8c\	.	8e\J	.
!	!	!LO:TX:t=P:problem:kreska pseudotaktowa	!	!LO:TX:t=P:problem:kreska pseudotaktowa	!	!	!
2G\	.	2B\	-a	2d\	.	4.d\	.
!	!	!	!	!	!	!LO:TX:t=P:problem:kreska pseudotaktowa	!
.	.	.	.	.	.	8e\	.
!	!	!	!	!	!	!LO:TX:a:t=P:problem:# above	!
0D\	tu-	2A/	tu-	2.d\	tu-	4.f#X\	.
.	.	.	.	.	.	8f#\	-ria
.	.	4B\	.	.	.	4g\	.
!	!	!LO:TX:t=P:problem:kreska pseudotaktowa	!	!	!	!	!
.	.	4c\	.	8c\L	.	2g\	tu-
!	!	!	!	!LO:TX:t=P:problem:kreska pseudotaktowa	!	!	!
.	.	.	.	8B\J	.	.	.
=36-	=36-	=36-	=36-	=36-	=36-	=36-	=36-
.	.	2d\	.	1A\	.	.	.
.	.	.	.	.	.	8f#X\L	.
.	.	.	.	.	.	8e\J	.
!	!	!LO:TX:t=P:problem:kreska pseudotaktowa	!	!	!	!LO:TX:t=P:problem:kreska pseudotaktowa	!
.	.	2D/	.	.	.	2f#\	.
!LO:TX:t=P:problem:kreska pseudotaktowa	!	!	!	!	!	!	!
1GG/;>	-a	2D/	-a	2.B\	-a	4g,\	-a,
.	.	.	.	.	.	4d\	Ho-
.	.	4r	.	.	.	2.g\	-ſan-
!	!	!LO:TX:t=P:problem:kreska pseudotaktowa	!	!LO:TX:t=P:problem:kreska pseudotaktowa	!	!	!
.	.	4G/	Ho-	4B\	O-	.	.
=37-	=37-	=37-	=37-	=37-	=37-	=37-	=37-
!LO:TX:a:t=1.	!	!	!	!	!	!	!
1r	.	2.c\	-ſan-	2.e\	-San-	.	.
!	!	!	!	!	!	!LO:SIC:o:v=custos ee	!
.	.	.	.	.	.	4f\	-na
!	!	!	!	!	!	!LO:LB:g=original	!
.	.	.	.	.	.	4e\	in
!	!	!	!	!LO:TX:t=P:problem:kreska pseudotaktowa	!	!LO:TX:a:t=P:problem:# above	!
.	.	4B\	.	4d\	-na	8f#X\L	ex-
!	!	!	!	!	!	!LO:TX:a:t=P:problem:# above	!
!	!	!	!	!	!	!LO:TX:t=P:problem:kreska pseudotaktowa	!
.	.	.	.	.	.	8g#X\J	.
2r	.	4A/	-na	4c\	.	8a\L	-cel-
.	.	.	.	.	.	8e\J	.
.	.	4G/	in	4B\	in	2g#\	-ſis
!LO:TX:t=P:problem:kreska pseudotaktowa	!	!LO:TX:t=P:problem:kreska pseudotaktowa	!	!LO:TX:t=P:problem:kreska pseudotaktowa	!	!	!
2D/	Ho-	[2d\	ex-	2A/	ex-	.	.
!	!	!	!	!	!	!LO:TX:a:t=P:problem:# above	!
.	.	.	.	.	.	4f#X\	.
=38-	=38-	=38-	=38-	=38-	=38-	=38-	=38-
*	*	*	*	*	*	*	*ij
2.G\	-ſan-	8d\L]	.	2B\	-celsis	4g#y\	Ho-
.	.	8c\	-cel-	.	.	.	.
.	.	8B\	.	.	.	4g#\	-san-
.	.	8A\J	.	.	.	.	.
!	!	!	!	!LO:TX:t=P:problem:kreska pseudotaktowa	!	!	!
.	.	4B\	.	2r	.	4g#\	-na
!LO:TX:t=P:problem:kreska pseudotaktowa	!	!	!	!	!	!LO:TX:t=P:problem:kreska pseudotaktowa	!
4F\	-na	8A\L	.	.	.	4a\	in
!	!	!LO:TX:t=P:problem:kreska pseudotaktowa	!	!	!	!	!
.	.	8B\J	.	.	.	.	.
!	!	!LO:TX:a:t=P:problem:# above	!	!	!	!	!
4E\	in	4c#X\	.	1r	.	4g#\	ex-
4D/	ex-	2d\	.	.	.	4f\	-cel-
!LO:TX:t=P:problem:kreska pseudotaktowa	!	!	!	!	!	!LO:TX:t=P:problem:kreska pseudotaktowa	!
2AA/	-cel-	.	.	.	.	2e\	-ſis
!	!	!LO:TX:t=P:problem:kreska pseudotaktowa	!	!	!	!	!
.	.	4c#\	.	.	.	.	.
=39-	=39-	=39-	=39-	=39-	=39-	=39-	=39-
2D/	-ſis	4d\	-ſis	2r	.	4f#X\	Ho-
.	.	4D/	Ho-	.	.	4f#\	-san-
!LO:TX:t=P:problem:kreska pseudotaktowa	!	!	!	!LO:TX:t=P:problem:kreska pseudotaktowa	!	!	!
2r	.	4.d\	-ſan-	2D/	O-	4.f#\	-na
!	!	!LO:TX:t=P:problem:kreska pseudotaktowa	!	!	!	!LO:TX:t=P:problem:kreska pseudotaktowa	!
.	.	8c\	.	.	.	8e\	in
1r	.	4B\	-na	4d\	-ſan-	4f#X\	.
.	.	4A/	in	4c\	-na	4a\	ex-
.	.	2.E/	ex-	4B\	.	8g#X\L	-cel-
.	.	.	.	.	.	8e\J	.
!	!	!	!	!LO:TX:t=P:problem:kreska pseudotaktowa	!	!	!
.	.	.	.	4c\	.	2a\	.
=40-	=40-	=40-	=40-	=40-	=40-	=40-	=40-
!	!	!LO:TX:t=P:problem:kreska pseudotaktowa	!	!	!	!	!
*	*ij	*	*	*	*	*	*
2E\	Ho-	.	.	2B\	in	.	.
.	.	4.e\	-cel-	.	.	4g#y\	.
!LO:TX:t=P:problem:kreska pseudotaktowa	!	!	!	!	!	!LO:TX:t=P:problem:kreska pseudotaktowa	!
2.A\	-ſan-	.	.	4A/	ex-	2a\	-ſis
.	.	8d\L	.	.	.	.	.
!	!	!	!	!LO:TX:t=P:problem:kreska pseudotaktowa	!	!	!
.	.	8c\	.	4A/	-celsis	.	.
!	!	!LO:SIC:o:v=custos c	!	!	!	!	!
!	!	!LO:TX:t=P:problem:kreska pseudotaktowa	!	!	!	!	!
.	.	8B\J	.	.	.	.	.
!	!	!LO:LB:g=original	!	!	!	!	!
*	*	*	*	*	*ij	*	*
.	.	4c\	.	4.e\	O-	1r	.
4G\	-na	4B\	.	.	.	.	.
.	.	.	.	8e\	-ſan-	.	.
4F\	in	8A\L	.	4f\	-na	.	.
.	.	8B\J	.	.	.	.	.
!	!	!	!	!LO:TX:t=P:problem:kreska pseudotaktowa	!	!	!
4E\	ex-	2c\	.	4c\	in	.	.
*	*	*	*	*	*	*	*Xij
=41-	=41-	=41-	=41-	=41-	=41-	=41-	=41-
2G\	-cel-	.	.	2d\	ex-	4d\	Ho-
.	.	4B\	-ſis	.	.	4.g\	-ſan-
!	!	!	!	!LO:SIC:o:v=custos cc	!	!	!
!	!	!LO:TX:t=P:problem:kreska pseudotaktowa	!	!LO:TX:t=P:problem:kreska pseudotaktowa	!	!	!
4C/	.	2c\	.	2e\	-celsis	.	.
.	.	.	.	.	.	8f\L	.
!LO:TX:t=P:problem:kreska pseudotaktowa	!	!	!	!	!	!	!
4C/	-ſis	.	.	.	.	8e\	.
.	.	.	.	.	.	16f\L	.
!	!	!	!	!	!	!LO:TX:t=P:problem:kreska pseudotaktowa	!
.	.	.	.	.	.	16g\JJ	.
*	*Xij	*	*	*	*	*	*
!	!	!	!	!LO:LB:g=original	!	!	!
2.F\	Ho-	1r	.	4r	.	2.a\	-na
*	*	*	*	*	*Xij	*	*
.	.	.	.	4c\	O-	.	.
!	!	!	!	!LO:TX:t=P:problem:kreska pseudotaktowa	!	!	!
.	.	.	.	2f\	.	.	.
4E\	-ſan-	.	.	.	.	4g\	.
=42-	=42-	=42-	=42-	=42-	=42-	=42-	=42-
!	!	!LO:TX:t=P:problem:kreska pseudotaktowa	!	!	!	!	!
4D/	-na	1r	.	4f\	-ſan-	8f\L	in
.	.	.	.	.	.	8g\	.
!LO:TX:a:t=P:problem:# below	!	!	!	!	!	!	!
4C#X/	.	.	.	2e\	-na	8a\	.
.	.	.	.	.	.	8g\J	.
!	!	!	!	!	!	!LO:TX:t=P:problem:kreska pseudotaktowa	!
8D\L	in	.	.	.	.	2f\	ex-
8E\	.	.	.	.	.	.	.
!	!	!	!	!LO:TX:t=P:problem:kreska pseudotaktowa	!	!	!
8F\	ex-	.	.	4d\	in	.	.
!LO:TX:t=P:problem:kreska pseudotaktowa	!	!	!	!	!	!	!
8G\J	.	.	.	.	.	.	.
2A\	-cel-	2r	.	(4d\	ex-	2e\	-cel
!	!	!	!	!LO:TX:a:t=P:problem:# above	!	!	!
.	.	.	.	4c#X\)	.	.	.
!LO:SIC:o:v=custos D	!	!	!	!	!	!	!
!LO:TX:t=P:problem:kreska pseudotaktowa	!	!LO:TX:t=P:problem:kreska pseudotaktowa	!	!LO:TX:t=P:problem:kreska pseudotaktowa	!	!	!
2D/	-ſis	2A/	Ho-	2d\	-cel-	4f#X\	.
!	!	!	!	!	!	!LO:TX:t=P:problem:kreska pseudotaktowa	!
.	.	.	.	.	.	4f#\	.
!LO:LB:g=original	!	!	!	!	!	!	!
=43-	=43-	=43-	=43-	=43-	=43-	=43-	=43-
!LO:TX:t=P:problem:kreska pseudotaktowa	!	!	!	!	!	!	!
1r	.	4.d\	-ſan-	2D/	-ſis	2.f#y\	.
.	.	8c\	-na	.	.	.	.
*	*	*	*	*	*ij	*	*
.	.	4B\	in	4d\	O-	.	.
!	!	!	!	!	!	!LO:SIC:o:v=custos dd	!
!	!	!LO:TX:t=P:problem:kreska pseudotaktowa	!	!LO:TX:t=P:problem:kreska pseudotaktowa	!	!LO:TX:t=P:problem:kreska pseudotaktowa	!
.	.	4A/	.	4c\	-ſan-	4a\	.
!	!	!	!	!	!	!LO:LB:g=original	!
2r	.	8G/L	ex-	4.B\	-na	4d\	.
.	.	8A/	.	.	.	.	.
.	.	8B/	-cel-	.	.	4g\	.
.	.	8c/J	.	8B\	in	.	.
!LO:TX:t=P:problem:kreska pseudotaktowa	!	!LO:TX:t=P:problem:kreska pseudotaktowa	!	!LO:TX:t=P:problem:kreska pseudotaktowa	!	!	!
*	*ij	*	*	*	*	*	*
2D/	Ho-	[2d\	.	2A/	ex-	4g\	.
!	!	!	!	!	!	!LO:TX:t=P:problem:kreska pseudotaktowa	!
.	.	.	.	.	.	4f#X\	.
=44-	=44-	=44-	=44-	=44-	=44-	=44-	=44-
2.G\	-san-	8d\L]	.	2B\	-cel-	4g\	.
.	.	8c\	.	.	.	.	.
.	.	8B\	.	.	.	4d\	.
.	.	8A\J	.	.	.	.	.
!	!	!LO:TX:t=P:problem:kreska pseudotaktowa	!	!LO:TX:t=P:problem:kreska pseudotaktowa	!	!	!
.	.	2G/	.	2B\	-ſis	2.g\	.
4F\	-na	.	.	.	.	.	.
4E\	in	2G/	-ſis	4c\	O-	.	.
4D/	ex-	.	.	4d\	-san-	4f#X\	.
4C/	-cel-	4.G/	in	4e\	-na	8e\L	.
.	.	.	.	.	.	8f#\	.
4BB/	.	.	.	2d\	in-	8g\	.
!	!	!LO:TX:t=P:problem:kreska pseudotaktowa	!	!	!	!	!
.	.	8G/	ex-	.	.	8f#\J	.
=45-	=45-	=45-	=45-	=45-	=45-	=45-	=45-
1C/	-ſis	1G/	-cel-	.	.	1e\	.
.	.	.	.	8c\L	-ex-	.	.
.	.	.	.	8B\J	.	.	.
.	.	.	.	2c\	-cel-	.	.
*	*	*	*	*lig	*	*	*
0GG/;>	.	0G/;>	-ſis	1B\	-ſis	0d\;<	.
=46-	=46-	=46-	=46-	=46-	=46-	=46-	=46-
.	.	.	.	1B\	.	.	.
*	*Xij	*	*	*Xlig	*Xij	*	*
!	!	!LO:LB:g=original	!	!	!	!	!
=47||-	=47||-	=47||-	=47||-	=47||-	=47||-	=47||-	=47||-
*M2/1	*	*M2/1	*	*M2/1	*	*M2/1	*
*met(C|)	*	*met(C|)	*	*met(C|)	*	*met(C|)	*
4.G\	BE-	4.B\	BE-	4.d\	Be-	2g\	.
8G\	-ne-	8B\	-ne-	8d\	-ne-	.	.
(4c\	-di-	4c\	-di-	4.e\	-di-	4e\	.
!LO:TX:t=P:problem:kreska pseudotaktowa	!	!	!	!	!	!	!
4B\)	.	8c\	.	.	.	2g\	.
!	!	!LO:TX:t=P:problem:kreska pseudotaktowa	!	!LO:TX:t=P:problem:kreska pseudotaktowa	!	!	!
.	.	8d\	-ctus	8d\	.	.	.
2A\	-ctus	4e\	qui	2c\	-ctus	.	.
!	!	!	!	!	!	!LO:TX:a:t=P:problem:# above	!
.	.	8d\L	.	.	.	4f#X\	.
.	.	8c\J	.	.	.	.	.
!LO:TX:t=P:problem:kreska pseudotaktowa	!	!	!	!	!	!LO:TX:t=P:problem:kreska pseudotaktowa	!
2G\	.	4d\	Ve-	4B\	.	2g\	.
!	!	!LO:TX:t=P:problem:kreska pseudotaktowa	!	!LO:TX:t=P:problem:kreska pseudotaktowa	!	!	!
.	.	4d\	-nit	4B\	qui	.	.
=48-	=48-	=48-	=48-	=48-	=48-	=48-	=48-
2E\	qui	4.e\	qui	4.c\	Ve-	2g\	.
.	.	8d\L	.	8B\	.	.	.
!	!	!	!	!LO:TX:t=P:problem:kreska pseudotaktowa	!	!	!
4.F\	.	8c\	.	2A/	.	4.a\	.
.	.	8B\J	.	.	.	.	.
.	.	2c\	Ve-	.	.	.	.
!	!	!	!	!	!	!LO:TX:t=P:problem:kreska pseudotaktowa	!
8E\L	Ve-	.	.	.	.	8g\	.
8D\	.	.	.	2d\	.	8f\L	.
8C\J	.	.	.	.	.	8e\J	.
4D/	.	4B\	-nit	.	.	4f\	.
!LO:TX:t=P:problem:kreska pseudotaktowa	!	!LO:TX:t=P:problem:kreska pseudotaktowa	!	!	!	!LO:TX:t=P:problem:kreska pseudotaktowa	!
2C,/	-nit	2c\	.	4G/	-nit	2e\	.
!	!	!	!	!LO:TX:t=P:problem:kreska pseudotaktowa	!	!	!
.	.	.	.	4c\	.	.	.
=49-	=49-	=49-	=49-	=49-	=49-	=49-	=49-
4.D/	Be-	1r	.	4A/	qui	2f#X\	.
.	.	.	.	8B\L	Ve-	.	.
8D/	-ne-	.	.	8A\J	.	.	.
4.E\	.	.	.	8G/L	.	4.g\	.
.	.	.	.	8A/J	.	.	.
.	.	.	.	2B\	.	.	.
!LO:TX:t=P:problem:kreska pseudotaktowa	!	!	!	!	!	!LO:TX:t=P:problem:kreska pseudotaktowa	!
8D/	-di-	.	.	.	.	8f#\	.
2C/	.	4r	.	.	.	4.e\	.
.	.	2e\	Be-	4A/	-nit	.	.
!	!	!	!	!	!	!LO:TX:a:t=P:problem:# above	!
.	.	.	.	.	.	8f#X\	.
!LO:SIC:o:v=custos E	!	!	!	!	!	!	!
!LO:TX:t=P:problem:kreska pseudotaktowa	!	!	!	!LO:TX:t=P:problem:kreska pseudotaktowa	!	!	!
2BB/	-cuts	.	.	2B\	.	4g\	.
!	!	!LO:TX:t=P:problem:kreska pseudotaktowa	!	!	!	!LO:TX:a:t=P:problem:# above	!
!	!	!LO:TX:a:t=P:problem:# above	!	!	!	!	!
.	.	4d#X\	-ne-	.	.	4f#X\	.
!LO:TX:b:t=qui venit	!	!	!	!	!	!	!
!LO:PB:g=original	!	!	!	!	!	!	!
=50-	=50-	=50-	=50-	=50-	=50-	=50-	=50-
!	!	!	!	!	!	!LO:SIC:o:v=custos gg	!
!	!	!	!	!	!	!LO:N:acc=-	!
4r	.	1e\	-di-	2r	.	2gn\	.
4E\	qui	.	.	.	.	.	.
!	!	!	!	!	!	!LO:LB:g=original	!
8C/L	.	.	.	4c\	qui	4r	.
8D/	.	.	.	.	.	.	.
!	!	!	!	!	!	!LO:TX:t=P:problem:kreska pseudotaktowa	!
8E/	Ve-	.	.	8G/L	Ve-	4g\	.
!LO:TX:t=P:problem:kreska pseudotaktowa	!	!	!	!LO:TX:t=P:problem:kreska pseudotaktowa	!	!	!
8F/J	.	.	.	8A/J	.	.	.
4G\	.	4B\	-ct(us)	8B\L	.	8d\L	.
.	.	.	.	8c\J	.	8e\	.
4F\	.	4A/	.	2d\	.	8f\	.
.	.	.	.	.	.	8d\J	.
!LO:TX:t=P:problem:kreska pseudotaktowa	!	!LO:TX:t=P:problem:kreska pseudotaktowa	!	!	!	!LO:TX:t=P:problem:kreska pseudotaktowa	!
2E\	-nit	2e\	qui	.	.	2g\	.
!	!	!	!	!LO:TX:a:t=P:problem:# above	!	!	!
!	!	!	!	!LO:TX:t=P:problem:kreska pseudotaktowa	!	!	!
.	.	.	.	4c#X\	-nit	.	.
=51-	=51-	=51-	=51-	=51-	=51-	=51-	=51-
!	!	!	!	!LO:TX:t=P:problem:kreska pseudotaktowa	!	!	!
1D\	.	2A/	ve-	1d\	.	4f\	.
.	.	.	.	.	.	4d\	.
.	.	4r	.	.	.	4.f\	.
!	!	!LO:TX:t=P:problem:kreska pseudotaktowa	!	!	!	!	!
.	.	4A/	-nit	.	.	.	.
!	!	!	!	!	!	!LO:TX:t=P:problem:kreska pseudotaktowa	!
.	.	.	.	.	.	8f\	.
!	!	!	!	!LO:TX:t=P:problem:kreska pseudotaktowa	!	!	!
2r	.	4.c\	in	1r	.	4e\	.
.	.	.	.	.	.	2a\	.
.	.	8c\	.	.	.	.	.
!LO:TX:t=P:problem:kreska pseudotaktowa	!	!	!	!	!	!	!
2E\	in	4B\	no-	.	.	.	.
!	!	!	!	!	!	!LO:TX:a:t=P:problem:# above	!
.	.	2e\	-mi-	.	.	4g#X\	.
=52-	=52-	=52-	=52-	=52-	=52-	=52-	=52-
4.F\	no-	.	.	4A/	in	2a\	.
.	.	4d\	-ne	4.A/	no-	.	.
8F\	-mi-	.	.	.	.	.	.
!	!	!	!	!	!	!LO:TX:t=P:problem:kreska pseudotaktowa	!
4E,\	-ne	4c\	Do-	.	.	2r	.
.	.	.	.	8A/	-mi-	.	.
!	!	!	!	!LO:SIC:o:v=custos a	!	!	!
!LO:TX:t=P:problem:kreska pseudotaktowa	!	!LO:TX:t=P:problem:kreska pseudotaktowa	!	!LO:TX:t=P:problem:kreska pseudotaktowa	!	!	!
!	!	!	!	!LO:TX:a:t=P:problem:# below	!	!	!
4E\	in	4B\	-mi-	4G#X/	-ne	.	.
!	!	!	!	!LO:LB:g=original	!	!	!
4.A\	no-	2c,\	-ni	8A\L	Do-	1r	.
.	.	.	.	8B\J	.	.	.
.	.	.	.	2c\	.	.	.
8G\	-mi-	.	.	.	.	.	.
!	!	!LO:SIC:o:v=custos e	!	!	!	!	!
!	!	!LO:TX:t=P:problem:kreska pseudotaktowa	!	!	!	!	!
8F,\	-ne	2d\	in	.	.	.	.
8F\	in	.	.	.	.	.	.
!	!	!	!	!LO:TX:t=P:problem:kreska pseudotaktowa	!	!	!
8G\L	no-	.	.	4B\	-mi-	.	.
!LO:TX:t=P:problem:kreska pseudotaktowa	!	!	!	!	!	!	!
8F\J	.	.	.	.	.	.	.
!	!	!LO:PB:g=original	!	!	!	!	!
=53-	=53-	=53-	=53-	=53-	=53-	=53-	=53-
8E/L	.	4.e\	no-	4c\	-ni	4G/	.
8D/	.	.	.	.	.	.	.
8C/	.	.	.	4G/	in	4.g\	.
8BB/J	.	8d\	.	.	.	.	.
4.AA/	.	4.c\	-mi-	4.A/	no-	.	.
.	.	.	.	.	.	8g\	.
!	!	!	!	!	!	!LO:TX:t=P:problem:kreska pseudotaktowa	!
.	.	.	.	.	.	4f#X\	.
!LO:TX:t=P:problem:kreska pseudotaktowa	!	!LO:TX:t=P:problem:kreska pseudotaktowa	!	!LO:TX:t=P:problem:kreska pseudotaktowa	!	!	!
8AA/	-mi-	8c\	-ne	8A/	-mi-	.	.
4GG/	-ne	4B\	.	4d\	-ne	4.g\	.
2G\	Do-	8G/L	Do-	8d\L	Do-	.	.
.	.	8A/J	.	8c\J	.	8f#\	.
.	.	8B\L	.	4B\	.	8d\L	.
.	.	8c\J	.	.	.	8e\	.
!LO:TX:t=P:problem:kreska pseudotaktowa	!	!	!	!LO:TX:t=P:problem:kreska pseudotaktowa	!	!	!
4F\	.	2d\	.	4A/	.	8f#\	.
!	!	!	!	!	!	!LO:TX:t=P:problem:kreska pseudotaktowa	!
.	.	.	.	.	.	8d\J	.
=54-	=54-	=54-	=54-	=54-	=54-	=54-	=54-
2.E\	-mi-	.	.	2.e\	-mi-	2.g\	.
!	!	!LO:TX:a:t=P:problem:# above	!	!	!	!	!
.	.	8c#X\L	.	.	.	.	.
.	.	8B\J	.	.	.	.	.
.	.	4.c#\	-mi-	.	.	.	.
!	!	!	!	!LO:TX:t=P:problem:kreska pseudotaktowa	!	!	!
4E\	-ni	.	.	4e\	-ni	4g\	.
!	!	!LO:TX:t=P:problem:kreska pseudotaktowa	!	!	!	!	!
.	.	8c#\	-ni	.	.	.	.
!	!	!LO:TX:t=P:problem:kreska pseudotaktowa	!	!	!	!LO:TX:t=P:problem:kreska pseudotaktowa	!
2D,/	.	1d\	.	4A/	in	1f#X\,	.
.	.	.	.	4A/	.	.	.
!LO:TX:t=P:problem:kreska pseudotaktowa	!	!	!	!	!	!	!
2D/	Ho-	.	.	4.d\	no-	.	.
!	!	!	!	!LO:TX:t=P:problem:kreska pseudotaktowa	!	!	!
.	.	.	.	8c\	-mi-	.	.
=55-	=55-	=55-	=55-	=55-	=55-	=55-	=55-
4.G\	-ſan-	1r	.	4B\	-ne	4d\	.
.	.	.	.	8G/L	Do-	2g\	.
8F\	-na	.	.	8A/J	.	.	.
4E\	in	.	.	8B\L	.	.	.
.	.	.	.	8c\	.	.	.
!LO:SIC:o:v=custos A	!	!	!	!	!	!	!
!LO:TX:t=P:problem:kreska pseudotaktowa	!	!	!	!	!	!LO:TX:t=P:problem:kreska pseudotaktowa	!
4D/	ex-	.	.	8d\	.	4f\	.
!	!	!	!	!LO:TX:t=P:problem:kreska pseudotaktowa	!	!	!
.	.	.	.	8B\J	.	.	.
!LO:LB:g=original	!	!	!	!LO:TX:a:t=P:problem:# above	!	!	!
4A\	-cel-	2r	.	4c#X\	.	4e\	.
4B-X\	.	.	.	2d\	-mi-	4g\	.
!LO:TX:t=P:problem:kreska pseudotaktowa	!	!	!	!	!	!LO:TX:t=P:problem:kreska pseudotaktowa	!
2A\	.	4r	.	.	.	2e\	.
!	!	!LO:TX:t=P:problem:kreska pseudotaktowa	!	!	!	!	!
.	.	4G/	Ho-	4c#\	-ni	.	.
=56-	=56-	=56-	=56-	=56-	=56-	=56-	=56-
4D/	.	4.d\	-ſan-	2d\	.	4f#X\	.
4D/	-ſis	.	.	.	.	4f#\	.
.	.	8c\	.	.	.	.	.
!	!	!	!	!LO:TX:t=P:problem:kreska pseudotaktowa	!	!	!
*	*ij	*	*	*	*	*	*
4.G\	Ho-	4B\	.	2r	.	4.g\	.
!	!	!LO:TX:t=P:problem:kreska pseudotaktowa	!	!	!	!	!
.	.	4B\	-na	.	.	.	.
!LO:TX:t=P:problem:kreska pseudotaktowa	!	!	!	!	!	!LO:TX:t=P:problem:kreska pseudotaktowa	!
8G\	-san-	.	.	.	.	8g\	.
4F#X\	-na	4d\	in	2r	.	4.a\	.
4A\	in	4c\	ex-	.	.	.	.
!	!	!	!	!	!	!LO:SIC:o:v=custos aa	!
.	.	.	.	.	.	8a\	.
!	!	!	!	!	!	!LO:LB:g=original	!
!LO:TX:t=P:problem:kreska pseudotaktowa	!	!LO:TX:t=P:problem:kreska pseudotaktowa	!	!	!	!	!
2E\	ex-	2B\	-cel-	4B\	Ho-	4a\	.
!	!	!	!	!LO:TX:t=P:problem:kreska pseudotaktowa	!	!LO:TX:t=P:problem:kreska pseudotaktowa	!
.	.	.	.	4.e\	.	4g#X\	.
=57-	=57-	=57-	=57-	=57-	=57-	=57-	=57-
!	!	!LO:TX:a:t=P:problem:# above	!	!	!	!	!
2AA/	-celsis	2c#X\	-ſis	.	.	4a\	.
.	.	.	.	8d\L	-ſan-	.	.
!	!	!	!	!LO:TX:a:t=P:problem:# above	!	!	!
.	.	.	.	8c#X\	.	4e\	.
.	.	.	.	8B\J	.	.	.
*	*Xij	*	*	*	*	*	*
!	!	!LO:TX:t=P:problem:kreska pseudotaktowa	!	!LO:TX:t=P:problem:kreska pseudotaktowa	!	!	!
!	!	!	!	!LO:TX:a:t=P:problem:# above	!	!	!
2AA/	Ho-	2r	.	2c#X\	-na	4.a\	.
!	!	!	!	!	!	!LO:TX:t=P:problem:kreska pseudotaktowa	!
.	.	.	.	.	.	8g\	.
!	!	!	!	!	!	!LO:TX:a:t=P:problem:# above	!
*	*	*	*	*	*ij	*	*
4.D/	-ſan-	2r	.	4d\	Ho-	4.f#X\	.
!	!	!	!	!LO:SIC:o:v=custos b	!	!	!
.	.	.	.	4A/	.	.	.
8C/	-na	.	.	.	.	8f#\	.
!	!	!	!	!LO:LB:g=original	!	!	!
4BB/	.	4G/	Ho-	4B/	-san-	4g\	.
!LO:TX:t=P:problem:kreska pseudotaktowa	!	!	!	!LO:TX:t=P:problem:kreska pseudotaktowa	!	!LO:TX:t=P:problem:kreska pseudotaktowa	!
4FF#X/	in	8d\L	-ſan-	4A/	-na	4a\	.
!	!	!LO:TX:t=P:problem:kreska pseudotaktowa	!	!	!	!	!
.	.	8c#\J	.	.	.	.	.
*	*	*	*	*	*Xij	*	*
=58-	=58-	=58-	=58-	=58-	=58-	=58-	=58-
1GG/	ex-	4B\	.	4G/	in	2d\	.
.	.	4c\	.	4A/	ex-	.	.
.	.	8d\L	.	8B/L	-cel-	4.g\	.
.	.	8B\	.	8G/	.	.	.
.	.	8c\	.	8A/	.	.	.
!	!	!LO:TX:t=P:problem:kreska pseudotaktowa	!	!LO:TX:t=P:problem:kreska pseudotaktowa	!	!LO:TX:t=P:problem:kreska pseudotaktowa	!
.	.	8d\J	.	8B/J	.	8g\	.
*	*	*	*	*	*	*lig	*
1C/	-cel-	4e\	-na	4c\	.	1e\	.
.	.	4d\	.	4B\	.	.	.
.	.	2.c\	in	4A/	.	.	.
.	.	.	.	4G/	.	.	.
=59-	=59-	=59-	=59-	=59-	=59-	=59-	=59-
!	!	!	!	!LO:TX:t=P:problem:kreska pseudotaktowa	!	!	!
!	!	!	!	!LO:TX:a:t=P:problem:# below	!	!	!
1D\	.	.	.	4F#X/	.	1d\	.
.	.	4B\	ex-	2G/	.	.	.
.	.	2A/	-cel-	.	.	.	.
.	.	.	.	4F#/	.	.	.
*	*	*	*	*lig	*	*Xlig	*
0GG/;>	-ſis	0B\;>	-ſis	1G/	-ſis	0d\;<	.
=60-	=60-	=60-	=60-	=60-	=60-	=60-	=60-
.	.	.	.	1G/;<	.	.	.
*	*	*	*	*Xlig	*	*	*
=-	=-	=-	=-	=-	=-	=-	=-
*-	*-	*-	*-	*-	*-	*-	*-
!!!system-decoration: [(s1,s2,s3,s4)]
!!!RDF**kern: > = above
!!!RDF**kern: < = below
!!!EED: Leszek Kubiak
!!!EST: 2021-03-11
!!!ENC:Anastazja Marusiak
!!!END:2021-03-03
